X:1
T:Miss Jane Hunter’s Reel
T:Miss Jane Hunter’s Reel
T:John Pringle
C:John Pringle
L:1/8
M:2/2
K:C
V:1 treble 
V:1
 G | Ecce dDDe | fedc BGGF | ECc_B AFfe | dBGB c2 c :| f | ec (a/g/f/e/) afdf | ecAc BdGf | %8
 ec (a/g/f/e/) afdf | ecdB c2 cf | ec (a/g/f/e/) a>fdf | ecAc BdGF | EcGE FADf | ecdB c2 c || %14

